wp-content/themes/sd-accesslasers/public/images/application/icons/application-2.svg

<?xml version="1.0" encoding="UTF-8"?>
<svg width="120px" height="120px" viewBox="0 0 120 120" version="1.1" xmlns="http://www.w3.org/2000/svg" xmlns:xlink="http://www.w3.org/1999/xlink">
    <!-- Generator: Sketch 55 (78076) - https://sketchapp.com -->
    <title>2</title>
    <desc>Created with Sketch.</desc>
    <g id="Home" stroke="none" stroke-width="1" fill="none" fill-rule="evenodd">
        <g id="AL_Home-Copy" transform="translate(-900.000000, -1735.000000)" fill="currentColor" fill-rule="nonzero">
            <g id="Features" transform="translate(195.000000, 1665.000000)">
                <g id="Icons">
                    <g id="8" transform="translate(566.000000, 0.000000)">
                        <g id="icon" transform="translate(139.000000, 70.000000)">
                            <g id="healthcare-and-medical" transform="translate(5.000000, 5.000000)">
                                <path d="M83.6956522,19.1304348 C82.5642197,19.1304348 81.4503014,19.199325 80.359736,19.340608 C77.2725247,8.00409739 66.9635277,0 55,0 C43.0364723,0 32.7274753,8.00409739 29.640264,19.340608 C28.5496986,19.199325 27.4357803,19.1304348 26.3043478,19.1304348 C11.8012271,19.1304348 0,30.9316619 0,45.4347826 C0,54.0168565 4.23265533,62.0501445 11.1870541,66.9331692 C10.1198413,69.1610054 9.56521739,71.6095235 9.56521739,74.1304348 C9.56521739,83.3582074 17.0742401,90.8695652 26.3043478,90.8695652 C30.9842052,90.8695652 35.221531,88.9394744 38.2608696,85.8359162 L38.2608696,105.217391 L21.5217391,105.217391 C20.2023184,105.217391 19.1304348,106.285772 19.1304348,107.608696 C19.1304348,108.931619 20.2023184,110 21.5217391,110 L88.4782609,110 C89.7976816,110 90.8695652,108.931619 90.8695652,107.608696 C90.8695652,106.285772 89.7976816,105.217391 88.4782609,105.217391 L71.7391304,105.217391 L71.7391304,85.8359162 C74.778469,88.9394744 79.0157948,90.8695652 83.6956522,90.8695652 C92.9257599,90.8695652 100.434783,83.3582074 100.434783,74.1304348 C100.434783,71.6095235 99.8801587,69.1680114 98.8129459,66.9518512 C105.767345,62.0501445 110,54.0075154 110,45.4347826 C110,30.9316619 98.1987729,19.1304348 83.6956522,19.1304348 Z M94.4109841,64.0946628 C94.4109841,64.0946628 94.408649,64.0946628 94.4063136,64.0969982 C91.1708134,65.9687074 87.4670942,66.9565217 83.6956522,66.9565217 C82.3762315,66.9565217 81.3043478,68.0249024 81.3043478,69.3478261 C81.3043478,70.6707498 82.3762315,71.7391304 83.6956522,71.7391304 C87.4857763,71.7391304 91.2046748,70.8785879 94.6164868,69.3139649 C95.2867061,70.8108652 95.6521739,72.4397079 95.6521739,74.1304348 C95.6521739,80.7228687 90.2880861,86.0869565 83.6956522,86.0869565 C77.1032183,86.0869565 71.7391304,80.7228687 71.7391304,74.1304348 L71.7391304,59.7826087 C71.7391304,55.8278489 74.9582837,52.6086957 78.9130435,52.6086957 C80.2324642,52.6086957 81.3043478,51.540315 81.3043478,50.2173913 C81.3043478,48.8944676 80.2324642,47.826087 78.9130435,47.826087 C72.3206096,47.826087 66.9565217,53.1901748 66.9565217,59.7826087 L66.9565217,105.217391 L57.3913043,105.217391 L57.3913043,40.6521739 C57.3913043,39.3292502 56.3194207,38.2608696 55,38.2608696 C53.6805793,38.2608696 52.6086957,39.3292502 52.6086957,40.6521739 L52.6086957,105.217391 L43.0434783,105.217391 L43.0434783,59.7826087 C43.0434783,53.1901748 37.6793904,47.826087 31.0869565,47.826087 C29.7675358,47.826087 28.6956522,48.8944676 28.6956522,50.2173913 C28.6956522,51.540315 29.7675358,52.6086957 31.0869565,52.6086957 C35.0417163,52.6086957 38.2608696,55.8278489 38.2608696,59.7826087 L38.2608696,74.1304348 C38.2608696,80.7228687 32.8967817,86.0869565 26.3043478,86.0869565 C19.7119139,86.0869565 14.3478261,80.7228687 14.3478261,74.1304348 C14.3478261,72.442043 14.7062883,70.8038596 15.3765072,69.297618 C18.7813136,70.871582 22.5025476,71.7391304 26.3043478,71.7391304 C27.6237685,71.7391304 28.6956522,70.6707498 28.6956522,69.3478261 C28.6956522,68.0249024 27.6237685,66.9565217 26.3043478,66.9565217 C22.5235647,66.9565217 18.8221807,65.9617018 15.600692,64.0794837 C15.5983569,64.0771486 15.5936864,64.0771486 15.591351,64.0771486 C15.5890159,64.0748132 15.5866805,64.0724778 15.5843454,64.0724778 C8.9218537,60.2484928 4.7826087,53.1084409 4.7826087,45.4347826 C4.7826087,33.5670007 14.4389013,23.9130435 26.3043478,23.9130435 C27.1508788,23.9130435 27.9810632,23.9679221 28.7960684,24.0636676 C28.7341839,24.7934357 28.6956522,25.5395507 28.6956522,26.3043478 L28.6956522,31.0869565 C28.6956522,32.4098802 29.7675358,33.4782609 31.0869565,33.4782609 C32.4063772,33.4782609 33.4782609,32.4098802 33.4782609,31.0869565 L33.4782609,26.3043478 C33.4782609,24.9744182 33.5926884,23.7122113 33.818041,22.5527557 C33.8203761,22.5457498 33.8157056,22.5399117 33.818041,22.5329058 C33.818041,22.5259001 33.8250466,22.5212296 33.8250466,22.5142237 C35.6477155,12.2390878 44.552055,4.7826087 55,4.7826087 C65.447945,4.7826087 74.3522845,12.2390878 76.1749534,22.5142237 C76.1749534,22.5212296 76.181959,22.5259001 76.181959,22.5329058 C76.181959,22.5399117 76.1796239,22.5457498 76.181959,22.5527557 C76.4073116,23.7122113 76.5217391,24.9744182 76.5217391,26.3043478 L76.5217391,31.0869565 C76.5217391,32.4098802 77.5936228,33.4782609 78.9130435,33.4782609 C80.2324642,33.4782609 81.3043478,32.4098802 81.3043478,31.0869565 L81.3043478,26.3043478 C81.3043478,25.5395507 81.2658161,24.7934357 81.2039316,24.0636676 C82.0189368,23.9679221 82.8491212,23.9130435 83.6956522,23.9130435 C95.5610987,23.9130435 105.217391,33.5670007 105.217391,45.4347826 C105.217391,53.1014353 101.075811,60.2484928 94.4109841,64.0946628 Z" id="Shape"></path>
                            </g>
                        </g>
                    </g>
                </g>
            </g>
        </g>
    </g>
</svg>

<svg width="120" height="120" viewBox="0 0 120 120" version="1.1" xmlns="http://www.w3.org/2000/svg"><g id="Home" stroke="none" stroke-width="1" fill="none" fill-rule="evenodd"><g id="AL_Home-Copy" transform="translate(-900 -1735)" fill="currentColor" fill-rule="nonzero"><g id="Features" transform="translate(195 1665)"><g id="Icons"><g id="8" transform="translate(566)"><g id="icon" transform="translate(139 70)"><g id="healthcare-and-medical" transform="translate(5 5)"><path d="M83.696 19.13c-1.132 0-2.246.07-3.336.21C77.273 8.005 66.964 0 55 0 43.036 0 32.727 8.004 29.64 19.34a25.965 25.965 0 0 0-3.336-.21C11.801 19.13 0 30.932 0 45.435c0 8.582 4.233 16.615 11.187 21.498a16.619 16.619 0 0 0-1.622 7.197c0 9.228 7.51 16.74 16.74 16.74 4.68 0 8.917-1.93 11.956-5.034v19.381H21.52a2.39 2.39 0 1 0 0 4.783h66.957a2.39 2.39 0 1 0 0-4.783H71.74V85.836a16.693 16.693 0 0 0 11.957 5.034c9.23 0 16.739-7.512 16.739-16.74a16.5 16.5 0 0 0-1.622-7.178C105.767 62.05 110 54.008 110 45.435c0-14.503-11.801-26.305-26.304-26.305zM94.41 64.095l-.005.002a21.41 21.41 0 0 1-10.71 2.86 2.39 2.39 0 1 0 0 4.782c3.79 0 7.509-.86 10.92-2.425a11.754 11.754 0 0 1 1.036 4.816c0 6.593-5.364 11.957-11.956 11.957-6.593 0-11.957-5.364-11.957-11.957V59.783c0-3.955 3.22-7.174 7.174-7.174a2.39 2.39 0 1 0 0-4.783c-6.592 0-11.956 5.364-11.956 11.957v45.434H57.39V40.652a2.39 2.39 0 1 0-4.782 0v64.565h-9.566V59.783c0-6.593-5.364-11.957-11.956-11.957a2.39 2.39 0 1 0 0 4.783c3.955 0 7.174 3.219 7.174 7.174V74.13c0 6.593-5.364 11.957-11.957 11.957-6.592 0-11.956-5.364-11.956-11.957 0-1.688.358-3.326 1.029-4.832 3.404 1.574 7.126 2.441 10.927 2.441a2.39 2.39 0 1 0 0-4.782A21.23 21.23 0 0 1 15.6 64.079c-.003-.002-.007-.002-.01-.002-.002-.002-.004-.005-.007-.005-6.661-3.824-10.8-10.964-10.8-18.637 0-11.868 9.656-21.522 21.521-21.522.847 0 1.677.055 2.492.15-.062.73-.1 1.477-.1 2.241v4.783a2.39 2.39 0 1 0 4.782 0v-4.783c0-1.33.115-2.592.34-3.751.002-.007-.002-.013 0-.02 0-.007.007-.012.007-.019C35.648 12.24 44.552 4.783 55 4.783s19.352 7.456 21.175 17.731c0 .007.007.012.007.019 0 .007-.002.013 0 .02.225 1.16.34 2.421.34 3.751v4.783a2.39 2.39 0 1 0 4.782 0v-4.783c0-.764-.038-1.51-.1-2.24a21.27 21.27 0 0 1 2.492-.151c11.865 0 21.521 9.654 21.521 21.522 0 7.666-4.141 14.813-10.806 18.66z" id="Shape"/></g></g></g></g></g></g></g></svg>
